!! 00000] TT[WS
!!!OTL: Mama dada haile xin
!!!ARE: Asia, China,ÿShanxi Hequ
!! Ethnic Group: Han
!! WI, 45
!!!SCT: J0049
!!!YEM: Copyright 1995, estate of Helmut Schaffrath.
**kern
*ICvox
*Ivox
*M2/4
*k[b-]
*F:
{8gg
4aa
16aa
16gg
=1
8dd
4ccc
16aa
16aa
=2
8gg
8dd
8ff
16ff
16cc
=3
2ff}
=4
{8gg
4aa
16aa
16gg
=5
8dd
4ccc
16aa
16aa
=6
8gg
8dd
4ff
=7
8dd
8a
4cc}
==
!!!AGN: Shange, Shanqu. Aisu
!!!ONB: ESAC (Essen Associative Code) Database: CHINA
!!!AMT: simple duple
!!!AIN: vox
!!!EED: Helmut Schaffrath
!!!EEV: 1.0
*-
